svg/pencil_remove_outline.svg

<svg xmlns="http://www.w3.org/2000/svg" viewBox="0 0 24 24"><path d="M17.7 3c-.2 0-.5.1-.7.3l-1.8 1.8 3.7 3.8L20.7 7c.4-.4.4-1 0-1.4l-2.3-2.3c-.2-.2-.5-.3-.7-.3m-3.6 3.2L3 17.2V21h3.8l11-11.1zM5.9 19H5v-.9L14.1 9l.9.9zm-2-16.5L6 4.6l2.1-2.1 1.4 1.4L7.4 6l2.1 2.1-1.4 1.4L6 7.4 3.9 9.5 2.5 8.1 4.6 6 2.5 3.9z"/></svg>

<?xml version="1.0" encoding="UTF-8"?><!DOCTYPE svg PUBLIC "-//W3C//DTD SVG 1.1//EN" "http://www.w3.org/Graphics/SVG/1.1/DTD/svg11.dtd"><svg xmlns="http://www.w3.org/2000/svg" xmlns:xlink="http://www.w3.org/1999/xlink" version="1.1" id="mdi-pencil-remove-outline" width="24" height="24" viewBox="0 0 24 24"><path d="M17.7,3C17.5,3 17.2,3.1 17,3.3L15.2,5.1L18.9,8.9L20.7,7C21.1,6.6 21.1,6 20.7,5.6L18.4,3.3C18.2,3.1 17.9,3 17.7,3M14.1,6.2L3,17.2V21H6.8L17.8,9.9L14.1,6.2M5.9,19H5V18.1L14.1,9L15,9.9L5.9,19M3.9,2.5L6,4.6L8.1,2.5L9.5,3.9L7.4,6L9.5,8.1L8.1,9.5L6,7.4L3.9,9.5L2.5,8.1L4.6,6L2.5,3.9L3.9,2.5Z" /></svg>
